packages/website/ts/@next/icons/illustrations/right-thing.svg

<svg width="104" height="104" viewBox="0 0 104 104" fill="none" xmlns="http://www.w3.org/2000/svg">
<path d="M52 102C79.6142 102 102 79.6142 102 52C102 24.3858 79.6142 2 52 2C24.3858 2 2 24.3858 2 52C2 79.6142 24.3858 102 52 102Z" stroke="#00AE99" stroke-width="2.5" stroke-miterlimit="10"/>
<path d="M92.0611 24.6135C81.9235 14.476 65.4872 14.476 55.3496 24.6135L51.6804 28.286L48.008 24.6135C37.8704 14.476 21.4341 14.476 11.2965 24.6135C1.15897 34.7511 1.15897 51.1874 11.2965 61.325L14.969 64.9974L51.6804 101.706L88.3918 64.9942L92.0643 61.3218C102.199 51.1874 102.199 34.7511 92.0611 24.6135Z" stroke="#00AE99" stroke-width="2.5" stroke-miterlimit="10"/>
<path d="M81.2925 45.1702C73.8581 37.7358 61.8044 37.7358 54.3731 45.1702L51.6796 47.8637L48.9861 45.1702C41.5517 37.7358 29.4979 37.7358 22.0635 45.1702C14.6291 52.6046 14.6291 64.6583 22.0635 72.0928L24.757 74.7863L51.6764 101.709L78.599 74.7863L81.2925 72.0928C88.7269 64.6583 88.7269 52.6046 81.2925 45.1702Z" stroke="#00AE99" stroke-width="2.5" stroke-miterlimit="10"/>
<path d="M70.5248 65.73C65.7935 60.9987 58.1223 60.9987 53.3942 65.73L51.6796 67.4446L49.9649 65.73C45.2336 60.9987 37.5625 60.9987 32.8344 65.73C28.1031 70.4613 28.1031 78.1324 32.8344 82.8605L34.5491 84.5752L51.6796 101.706L68.8101 84.5752L70.5248 82.8605C75.256 78.1292 75.256 70.4613 70.5248 65.73Z" stroke="#00AE99" stroke-width="2.5" stroke-miterlimit="10"/>
</svg>

<svg width="104" height="104" viewBox="0 0 104 104" fill="none" xmlns="http://www.w3.org/2000/svg"><path d="M52 102c27.614 0 50-22.386 50-50S79.614 2 52 2 2 24.386 2 52s22.386 50 50 50z" stroke="#00AE99" stroke-width="3" stroke-miterlimit="10"/><path d="M92.061 24.613c-10.138-10.137-26.574-10.137-36.711 0l-3.67 3.673-3.672-3.673c-10.138-10.137-26.574-10.137-36.711 0-10.138 10.138-10.138 26.574 0 36.712l3.672 3.672 36.711 36.709 36.712-36.712 3.672-3.672c10.135-10.135 10.135-26.57-.003-36.709z" stroke="#00AE99" stroke-width="3" stroke-miterlimit="10"/><path d="M81.293 45.17c-7.435-7.434-19.489-7.434-26.92 0l-2.693 2.694-2.694-2.694c-7.434-7.434-19.488-7.434-26.922 0-7.435 7.435-7.435 19.488 0 26.923l2.693 2.693 26.92 26.923 26.922-26.923 2.694-2.693c7.434-7.435 7.434-19.488 0-26.923z" stroke="#00AE99" stroke-width="3" stroke-miterlimit="10"/><path d="M70.525 65.73c-4.732-4.731-12.403-4.731-17.13 0l-1.715 1.715-1.715-1.715c-4.731-4.731-12.403-4.731-17.13 0-4.732 4.731-4.732 12.402 0 17.13l1.714 1.715 17.13 17.131 17.131-17.13 1.715-1.715c4.731-4.732 4.731-12.4 0-17.131z" stroke="#00AE99" stroke-width="3" stroke-miterlimit="10"/></svg>
